X:1
T:Title
%%score ( 1 2 ) { 3 | 4 }
L:1/8
Q:1/4=110
M:3/4
K:Eb
V:1 treble nm="Grand Piano, Soprano"
V:2 treble 
V:3 treble nm="Choir Pad, Davenport"
V:4 bass 
V:1
 [EG]2 [FA]2 [_G=A]2 | [GB]6 | [GB]2 [F=B]2 [Ec]2 | d4 z2 | [FB]4 [F=A]2 | [FB]4 [FB]2 | %6
w: By~Mrs.~Emma~L.~Morton,~1879 * *||||||
 [FA]4 [FA]2 | [EG]4 [EG]2 | [DF][Ac] [GB]2 [FA]2 | [EG]4 z2 | [GB]2 [GB]2 [FA]2 | [EG]4 z2 | %12
w: ||||||
 [CF]2 [B,E]2 [B,D]2 | [B,E]6- | [B,E]2 z2 z2 |] %15
w: |||
V:2
 x6 | x6 | x6 | D2 F2 [Ee][Gc] | x6 | x6 | x6 | x6 | x6 | x6 | x6 | x6 | x6 | x6 | x6 |] %15
V:3
 E2 D2 C2 | B,6 | E2[K:bass] G,2 G,2 | B,4 G,E | D4 C2 | D4 B,2 | B,4[K:bass] B,2 | B,4 B,2 | %8
 B,4 B,2 | B,4 z2 | E2 B,2 B,2 | E4 z2 | A,2 G,2 F,2 | G,6- | G,2 z2 z2 |] %15
V:4
 E,2 E,2 E,2 | E,6 | E,2 D,2 C,2 | B,,4 C,E, | F,4 F,2 | B,,4 B,,2 | D,2 B,,2 C,D, | E,4 E,2 | %8
 B,,4 B,,2 | E,4 z2 | E,2 E,2 B,,=B,, | C,4 z2 | A,,2 B,,2 B,,2 | E,6- | E,2 z2 z2 |] %15

